static/images/mobile/copyright/wikipedia-wordmark-bat_smg.svg

<?xml version="1.0" encoding="UTF-8"?>
<svg width="120px" height="27px" viewBox="0 0 120 27" version="1.1" xmlns="http://www.w3.org/2000/svg" xmlns:xlink="http://www.w3.org/1999/xlink">
    <title>bat-smg-wordmark</title>
    <g id="Page-1" stroke="none" stroke-width="1" fill="none" fill-rule="evenodd">
        <path d="M0.0548267945,3.86528902 C0.0548267945,3.86528902 0.89007906,3.88670573 1.77753425,3.90276827 L2.13344436,3.90884427 C2.54759006,3.91545173 2.95036697,3.92011581 3.26219407,3.92011581 C3.55420604,3.92011581 3.95794463,3.91503734 4.37835397,3.90797163 L4.74057041,3.90150075 C5.58492204,3.88560291 6.38732136,3.86528902 6.38732136,3.86528902 L6.44214816,3.92011581 L6.44214816,4.44097036 C6.44214816,4.57803734 6.35990796,4.63286414 6.22284098,4.66027754 L5.75681322,4.71510433 C4.46838355,4.87958471 4.24907739,5.09889189 4.55062374,5.92129381 L8.88194051,18.1202556 L8.9915941,18.1202556 L13.2680841,6.11318759 C13.6518716,5.0714785 13.0761893,4.74251773 12.0618946,4.68769093 L11.6232802,4.66027754 C11.5136267,4.66027754 11.4039731,4.57803734 11.4039731,4.44097036 L11.4039731,3.92011581 L11.4587999,3.86528902 C11.4587999,3.86528902 12.1799436,3.88560291 12.9854339,3.90150075 L13.3339515,3.90797163 C13.7422482,3.91503734 14.1488888,3.92011581 14.4742736,3.92011581 C15.4337414,3.92011581 16.9963061,3.86528902 16.9963061,3.86528902 L17.0511329,3.92011581 L17.0511329,4.44097036 C17.0511329,4.57803734 16.9688927,4.66027754 16.8318257,4.66027754 C15.3240909,4.74251773 14.8580611,5.48267945 14.4742736,6.46956176 L8.90935391,21.3002097 C8.74487353,21.7114106 8.55297975,21.9307178 8.25143238,21.9307178 C7.9772984,21.9307178 7.75799123,21.7114106 7.62092424,21.3002097 L2.30272517,6.35990817 C1.89152522,5.20854548 1.64480262,4.79734452 0.219307178,4.66027754 C0.109653691,4.66027754 0,4.57803734 0,4.44097036 L0,3.92011581 Z M22.458854,8.93676751 L22.4862674,8.99159431 L22.4862674,9.59468905 C22.4862674,9.67692924 22.4314406,9.73175603 22.321787,9.73175603 L21.7461056,9.78658283 C20.8962913,9.86882302 20.594743,10.0881302 20.594743,10.6363981 L20.594743,19.7650594 C20.594743,20.3681542 20.8688779,20.7245283 21.7461056,20.8067685 L22.321787,20.8615953 C22.4040272,20.8615953 22.4862674,20.9164221 22.4862674,21.0260757 L22.4862674,21.6017571 L22.458854,21.6565838 C22.458854,21.6565838 20.3754348,21.6017571 19.5256205,21.6017571 C18.7580464,21.6017571 16.6198004,21.6565838 16.6198004,21.6565838 L16.5649736,21.6017571 L16.5649736,21.0260757 C16.5649736,20.9164221 16.6472138,20.8615953 16.7568673,20.8615953 L17.3051353,20.8067685 C18.2097764,20.7245283 18.4839114,20.285914 18.4839114,19.7650594 L18.4839114,10.6363981 C18.4839114,10.0333034 18.1549496,9.86882302 17.3051353,9.78658283 L16.7568673,9.73175603 C16.6472138,9.73175603 16.5649736,9.70434264 16.5649736,9.62210244 L16.5649736,8.99159431 L16.592387,8.93676751 C16.592387,8.93676751 18.7580464,8.99159431 19.6078607,8.99159431 L19.7169606,8.99126477 C20.535554,8.98672333 22.458854,8.93676751 22.458854,8.93676751 Z M28.2512195,15.7078766 C28.8543133,15.7078766 29.2929286,15.8449436 29.7041296,16.3932116 L32.7470167,20.1762604 C33.1308032,20.6148748 33.1582176,20.9164221 33.1582176,21.2727963 L33.1582176,21.6017571 L33.185631,21.6291704 C33.185631,21.6291704 34.1725133,21.6017571 34.8578483,21.6017571 C35.6254224,21.6017571 37.0783335,21.6291704 37.0783335,21.6291704 L37.1605736,21.6017571 L37.1605736,21.0260757 C37.1605736,20.9438355 37.0509201,20.8890087 36.9686799,20.8615953 L36.8316129,20.8341819 C36.2833449,20.7245283 35.6254224,20.560048 35.2964626,20.1762604 L31.1570396,15.1870221 C31.0199727,15.0225417 30.9103191,14.8854747 30.9103191,14.7209943 C30.9103191,14.5016872 31.0747995,14.2001398 31.5408272,13.7066986 L33.8983794,10.9927723 C34.8852607,9.86882302 35.6254244,9.81399622 36.6945459,9.73175603 C36.8316129,9.73175603 36.9138531,9.67692924 36.9138531,9.59468905 L36.9138531,8.96418091 L36.8316129,8.93676751 C36.8316129,8.93676751 35.6254224,8.99159431 34.9126751,8.99159431 C34.1176876,8.99159431 31.8972014,8.93676751 31.8972014,8.93676751 L31.869788,8.96418091 L31.869788,9.59468905 C31.869788,9.67692924 31.9246148,9.70434264 32.0342684,9.73175603 C32.5825353,9.81399622 32.8292569,10.0607168 32.8292569,10.280024 C32.8292569,10.8008785 31.9794405,11.8151742 30.8829057,13.0213637 C29.6767172,14.3097934 29.1558606,14.7758211 28.2512195,14.7758211 L28.2512195,10.6363981 C28.2512195,10.0881302 28.5527679,9.95106321 29.4025822,9.78658283 L29.7041296,9.73175603 C29.8137832,9.70434264 29.86861,9.67692924 29.86861,9.59468905 L29.86861,8.99159431 L29.8411966,8.93676751 C29.8411966,8.93676751 28.1141515,8.99159431 27.3465774,8.99159431 C26.4967631,8.99159431 24.2488635,8.93676751 24.2488635,8.93676751 L24.2214501,8.99159431 L24.2214501,9.62210244 C24.2214501,9.70434264 24.3036903,9.73175603 24.4133439,9.73175603 L24.9616119,9.78658283 C25.8388396,9.86882302 26.1403879,10.0333034 26.1403879,10.6363981 L26.1403879,19.7650594 C26.1403879,20.285914 25.7840128,20.7245283 24.9616119,20.8067685 L24.4133439,20.8615953 C24.3036903,20.8615953 24.2214501,20.9164221 24.2214501,21.0260757 L24.2214501,21.6017571 L24.2762769,21.6565838 C24.2762769,21.6565838 26.5241755,21.6017571 27.2917506,21.6017571 C28.1141515,21.6017571 29.8411966,21.6565838 29.8411966,21.6565838 L29.86861,21.6017571 L29.86861,21.0260757 C29.86861,20.9164221 29.7863698,20.8890087 29.7041296,20.8615953 L29.4025822,20.8067685 C28.6075947,20.6697015 28.2512195,20.3681542 28.2512195,19.7650594 L28.2512195,15.7078766 M42.6004192,10.6363981 C42.6004192,10.0881302 42.9019675,9.86882302 43.7517818,9.78658283 L44.3274632,9.73175603 C44.4371168,9.73175603 44.4919436,9.67692924 44.4919436,9.59468905 L44.4919436,8.99159431 L44.4645302,8.93676751 C44.4645302,8.93676751 42.3536986,8.99159431 41.6135369,8.99159431 C40.7637226,8.99159431 38.5980632,8.93676751 38.5980632,8.93676751 L38.5706498,8.99159431 L38.5706498,9.62210244 C38.5706498,9.70434264 38.65289,9.73175603 38.7625435,9.73175603 L39.3108115,9.78658283 C40.1606258,9.86882302 40.4895876,10.0333034 40.4895876,10.6363981 L40.4895876,19.7650594 C40.4895876,20.285914 40.2154526,20.7245283 39.3108115,20.8067685 L38.7625435,20.8615953 C38.65289,20.8615953 38.5706498,20.9164221 38.5706498,21.0260757 L38.5706498,21.6017571 L38.6254766,21.6565838 C38.6254766,21.6565838 40.7637226,21.6017571 41.5312967,21.6017571 C42.381111,21.6017571 44.4645302,21.6565838 44.4645302,21.6565838 L44.4919436,21.6017571 L44.4919436,21.0260757 C44.4919436,20.9164221 44.4097034,20.8615953 44.3274632,20.8615953 L43.7517818,20.8067685 C42.8745542,20.7245283 42.6004192,20.3681542 42.6004192,19.7650594 L42.6004192,10.6363981 M50.2020689,10.6912249 C50.2020689,9.97847661 50.5310307,9.73175603 51.8468728,9.73175603 C53.3546076,9.73175603 54.4237321,10.2526106 54.4237321,12.6101627 C54.4237321,14.7209943 53.6287416,15.7078766 51.9839398,15.7078766 C51.4356718,15.7078766 50.7503359,15.6804632 50.2020689,15.4611561 L50.2020689,10.6912249 M48.0912374,19.9021264 C48.0912374,20.422981 47.8171024,20.6697015 46.9672881,20.7793551 L46.3916067,20.8615953 C46.2819531,20.8890087 46.2271263,20.9164221 46.2271263,21.0260757 L46.2271263,21.6017571 L46.2545397,21.6565838 C46.2545397,21.6565838 48.3105455,21.6017571 49.0781197,21.6017571 C49.927934,21.6017571 52.1210067,21.6565838 52.1210067,21.6565838 L52.1484201,21.6017571 L52.1484201,21.0260757 C52.1484201,20.9164221 52.06618,20.8890087 51.9565264,20.8615953 L51.4082584,20.7793551 C50.5310307,20.6422881 50.2020689,20.5052212 50.2020689,19.9021264 L50.2020689,16.2287312 C50.6955091,16.4480384 51.2437791,16.5028652 51.929113,16.5028652 C55.8218113,16.5028652 56.6168039,13.9260058 56.6168039,12.281202 C56.6168039,10.8557053 55.9040515,8.93676751 52.0113532,8.93676751 C50.9970585,8.93676751 49.9005206,8.99159431 49.1329464,8.99159431 C48.3379589,8.99159431 46.7205665,8.93676751 46.3093665,8.93676751 L46.2545397,8.96418091 L46.2545397,9.59468905 C46.2545397,9.64951584 46.2819531,9.73175603 46.4464335,9.73175603 C47.7348622,9.81399622 48.0912374,9.84140962 48.0912374,10.6912249 L48.0912374,19.9021264 M65.7056295,21.6017571 C66.5280314,21.6017571 68.1454218,21.6565838 68.1454218,21.6565838 L68.2002486,21.6017571 L68.7485166,18.4492164 L68.0631816,18.3669762 C67.7342219,19.7924728 66.9666447,20.6697015 65.5685625,20.6697015 L62.9642897,20.6697015 C62.4708496,20.6697015 62.1693012,20.148847 62.1693012,19.6279924 L62.1693012,15.4337427 L64.225306,15.4337427 C64.9380543,15.4337427 65.1847759,15.73529 65.2944285,16.283558 L65.4314955,16.8866527 C65.4314955,16.9688929 65.4863223,17.0237197 65.6233893,17.0237197 L66.089417,17.0237197 L66.1442438,16.9688929 C66.089417,16.3383848 65.9797634,15.7627034 65.9797634,15.0773685 C65.9797634,14.419447 66.089418,13.6518718 66.1442438,13.0487771 C66.1442438,12.9939503 66.1442438,12.9665369 66.089417,12.9665369 L65.6233893,12.9665369 C65.5137367,12.9665369 65.4589089,13.0213637 65.4589089,13.1036039 L65.2944285,13.6792852 C65.1847759,14.2275532 64.9928811,14.556514 64.225306,14.556514 L62.1693012,14.556514 L62.1693012,10.5815713 C62.1693012,10.1155436 62.4434362,9.92364981 62.9642897,9.92364981 L65.1573615,9.92364981 C66.9118179,9.92364981 67.4326745,11.3765599 67.7342209,12.3908556 L68.4195558,12.281202 C68.227663,11.2394929 68.0357682,10.1703704 68.0083548,8.99159431 L67.953528,8.93676751 C67.953528,8.93676751 66.0071768,8.99159431 65.1847749,8.99159431 L61.1550055,8.99159431 C60.3326046,8.99159431 58.1943586,8.93676751 58.1943586,8.93676751 L58.1669452,8.99159431 L58.1669452,9.62210244 C58.1669452,9.64951584 58.1669452,9.70434264 58.3314256,9.73175603 L58.9619337,9.78658283 C59.7295089,9.84140962 60.0584696,9.95106321 60.0584696,10.5815713 L60.0584696,19.6279924 C60.0584696,20.1762604 59.8117491,20.7245283 58.9619337,20.8067685 L58.3314256,20.8615953 C58.1943596,20.8615953 58.1669452,20.9438355 58.1669452,20.9986623 L58.1669452,21.6017571 L58.1943586,21.6565838 C58.1943586,21.6565838 60.085884,21.6017571 60.9082849,21.6017571 L65.7056295,21.6017571 M70.5886409,21.0260757 L70.5886409,21.6017571 L70.6160543,21.6565838 C70.6160543,21.6565838 72.6994735,21.6017571 73.5218744,21.6017571 C74.3716897,21.6017571 75.3311616,21.6565838 77.5242304,21.6565838 C80.5671144,21.6565838 83.9663787,20.2310872 83.9663787,15.4337427 C83.9663787,11.7877608 81.7184761,8.93676751 77.1404428,8.93676751 C76.4276955,8.93676751 74.0427289,8.99159431 73.5218744,8.99159431 C73.0284342,8.99159431 70.6160543,8.93676751 70.6160543,8.93676751 L70.5886409,8.99159431 L70.5886409,9.59468905 C70.5886409,9.67692924 70.670881,9.73175603 70.7805346,9.73175603 L71.3836294,9.78658283 C72.2882715,9.86882302 72.4801653,9.86882302 72.4801653,10.5815713 L72.4801653,19.6279924 C72.4801653,20.4778078 72.2060313,20.7245283 71.3836294,20.8067685 L70.7531212,20.8615953 C70.6434687,20.8615953 70.5886409,20.9438355 70.5886409,21.0260757 M74.5909969,19.6279924 L74.5909969,10.5815713 C74.5909969,9.89623642 75.2763338,9.73175603 76.3454543,9.73175603 C80.950901,9.73175603 81.5814132,13.0487771 81.5814132,15.8997704 C81.5814132,19.737646 79.8817805,20.8615953 76.8663088,20.8615953 C74.7828937,20.8615953 74.5909969,20.3955676 74.5909969,19.6279924 M104.846392,8.93676751 L104.901219,8.99159431 L104.901219,9.59468905 C104.901219,9.67692924 104.818978,9.70434264 104.709325,9.73175603 L104.352951,9.78658283 C103.503135,9.92364981 103.174175,10.0607168 103.174175,10.6089847 L103.174175,18.9700709 C103.174175,22.424159 102.269532,24.2334432 100.789209,25.4122193 C99.6378463,26.3716882 98.513897,26.3991016 97.8833889,26.3991016 C97.3077075,26.3991016 96.2385851,25.9330738 96.2385851,25.0284317 C96.2385851,24.4527504 96.8690932,24.0963762 97.2254674,24.0963762 C97.9930425,24.0963762 98.2945898,24.4527504 98.5413104,24.7817111 C98.7332042,25.0558451 98.8976846,25.2477389 99.2540588,25.2477389 C100.103874,25.2477389 101.063343,24.4801638 101.063343,19.5457523 L101.063343,10.6089847 C101.063343,10.00589 100.734382,9.84140962 99.8845669,9.78658283 L99.1169918,9.73175603 C99.0347516,9.73175603 98.9525114,9.67692924 98.9525114,9.59468905 L98.9525114,8.99159431 L98.9799248,8.93676751 C98.9799248,8.93676751 101.337477,8.99159431 102.159879,8.99159431 L102.277033,8.99123318 C103.105859,8.98649703 104.846392,8.93676751 104.846392,8.93676751 Z M95.7417223,8.93676751 L95.7965491,8.99159431 C95.8239625,10.1703704 96.0158563,11.2394929 96.2077501,12.281202 L95.5224151,12.3908556 C95.2208678,11.3765599 94.7000031,9.92364981 92.9455517,9.92364981 L90.7524799,9.92364981 C90.2316264,9.92364981 89.9574914,10.1155436 89.9574914,10.5815713 L89.9574914,14.556514 L92.0134962,14.556514 C92.7810703,14.556514 92.9729651,14.2275532 93.0826228,13.6792852 L93.2471031,13.1036039 C93.2471031,13.0213637 93.3019299,12.9665369 93.4115835,12.9665369 L93.8776113,12.9665369 C93.9324381,12.9665369 93.9324381,12.9939503 93.9324381,13.0487771 C93.8776113,13.6518718 93.7679577,14.419447 93.7679577,15.0773685 C93.7679577,15.7627034 93.8776113,16.3383848 93.9324381,16.9688929 L93.8776113,17.0237197 L93.4115835,17.0237197 C93.2745165,17.0237197 93.2196898,16.9688929 93.2196898,16.8866527 L93.0826228,16.283558 C92.9729651,15.73529 92.7262435,15.4337427 92.0134962,15.4337427 L89.9574914,15.4337427 L89.9574914,19.6279924 C89.9574914,20.148847 90.2590398,20.6697015 90.7524799,20.6697015 L93.3567567,20.6697015 C94.7548298,20.6697015 95.5224151,19.7924728 95.8513759,18.3669762 L96.5367108,18.4492164 L95.9884429,21.6017571 L95.9336161,21.6565838 C95.9336161,21.6565838 94.3162256,21.6017571 93.4938237,21.6017571 L88.6964751,21.6017571 C87.8740742,21.6017571 85.9825488,21.6565838 85.9825488,21.6565838 L85.9551354,21.6017571 L85.9551354,20.9986623 C85.9551354,20.9438355 85.9825488,20.8615953 86.1196158,20.8615953 L86.7501239,20.8067685 C87.5999382,20.7245283 87.8466598,20.1762604 87.8466598,19.6279924 L87.8466598,10.5815713 C87.8466598,9.95106321 87.517698,9.84140962 86.7501239,9.78658283 L86.1196158,9.73175603 C85.9551354,9.70434264 85.9551354,9.64951584 85.9551354,9.62210244 L85.9551354,8.99159431 L85.9825488,8.93676751 C85.9825488,8.93676751 88.1207948,8.99159431 88.9431957,8.99159431 L93.0917896,8.99126477 C93.9682907,8.98672333 95.7417223,8.93676751 95.7417223,8.93676751 Z M92.1231498,4.60545074 C92.8358971,4.60545074 93.4389969,5.18113208 93.4389969,5.92129381 C93.4389969,6.63404214 92.8358971,7.20972348 92.1231498,7.20972348 C91.3829891,7.20972348 90.8073067,6.63404214 90.8073067,5.92129381 C90.8073067,5.18113208 91.3829891,4.60545074 92.1231498,4.60545074 Z M117.943995,3.89270241 C117.943995,3.83787562 117.916582,3.81046222 117.834342,3.81046222 C117.368324,3.89270241 117.203833,3.92011581 116.545912,3.92011581 L109.637736,3.92011581 C108.897584,3.92011581 106.128821,3.89270241 106.128821,3.89270241 L106.073994,3.92011581 L106.073994,4.46838376 C106.073994,4.55062395 106.101408,4.66027754 106.293301,4.66027754 L107.115703,4.71510433 C108.157412,4.79734452 108.513787,5.0440651 108.513787,5.89388041 L108.513787,19.6279924 C108.513787,20.3955676 108.184826,20.7245283 107.115703,20.8067685 L106.293301,20.8615953 C106.128831,20.8615953 106.073994,20.9712489 106.073994,21.0534891 L106.073994,21.6017571 L106.128821,21.6565838 L109.637736,21.6017571 L115.476789,21.6017571 C116.792633,21.6017571 118.985704,21.6565838 118.985704,21.6565838 L120,17.0785465 L119.150185,16.9414795 C118.601927,18.9152441 117.532794,20.5326346 115.449376,20.5326346 L111.721154,20.5326346 C111.118069,20.5326346 110.734272,20.3681542 110.734272,19.6279924 L110.734272,12.7472297 L114.215773,12.7472297 C115.147829,12.7472297 115.531616,12.9939503 115.586443,13.7889388 L115.64127,14.5016872 C115.64127,14.5839274 115.72351,14.6935809 115.860577,14.6935809 L116.491085,14.6935809 L116.573325,14.6113407 C116.573325,14.6113407 116.463672,13.0487771 116.463672,12.1167216 C116.463672,11.2120795 116.573325,9.75916943 116.573325,9.75916943 C116.573325,9.70434264 116.545912,9.64951584 116.463672,9.64951584 L115.860577,9.64951584 C115.750923,9.64951584 115.668683,9.75916943 115.668683,9.86882302 L115.586443,10.554158 C115.504203,11.3217331 115.175242,11.7055206 114.215773,11.7055206 L110.734272,11.7055206 L110.734272,5.89388041 C110.734272,5.23595888 111.063243,5.0166517 111.721154,5.0166517 L114.599561,5.0166517 C116.655566,5.0166517 117.149017,6.11318759 117.752101,8.004712 L118.54709,7.86764502 C118.410023,6.74369573 117.998822,4.11200959 117.943995,3.89270241 M112.104942,1.31584307 C112.104942,2.0285914 112.680633,2.60427274 113.420785,2.60427274 C114.133533,2.60427274 114.736628,2.0285914 114.736628,1.31584307 C114.736628,0.575681343 114.133533,0 113.420785,0 C112.680633,0 112.104942,0.575681343 112.104942,1.31584307" id="bat-smg-wordmark" fill="#000000" fill-rule="nonzero"></path>
    </g>
</svg>

<svg xmlns="http://www.w3.org/2000/svg" width="120" height="27"><path fill="#000" fill-rule="nonzero" d="M.055 3.865s.835.022 1.723.038l.355.006c.415.006.817.011 1.13.011.291 0 .695-.005 1.115-.012l.363-.006a288.78 288.78 0 0 0 1.646-.037l.055.055v.521c0 .137-.082.192-.22.22l-.465.054C4.468 4.88 4.249 5.1 4.55 5.921l4.33 12.2h.11l4.277-12.008c.384-1.042-.192-1.37-1.206-1.425l-.439-.028a.216.216 0 0 1-.219-.219v-.52l.055-.056s.72.02 1.526.037l.349.006c.408.007.815.012 1.14.012.96 0 2.522-.055 2.522-.055l.055.055v.521c0 .137-.082.22-.22.22-1.507.082-1.973.822-2.357 1.809L8.91 21.3c-.164.411-.356.63-.658.63-.274 0-.493-.219-.63-.63L2.303 6.36c-.411-1.151-.658-1.563-2.084-1.7A.216.216 0 0 1 0 4.441v-.52Zm22.404 5.072.027.055v.603c0 .082-.055.137-.164.137l-.576.055c-.85.082-1.151.301-1.151.85v9.128c0 .603.274.96 1.151 1.042l.576.055c.082 0 .164.054.164.164v.576l-.027.055s-2.084-.055-2.933-.055c-.768 0-2.906.055-2.906.055l-.055-.055v-.576c0-.11.082-.164.192-.164l.548-.055c.905-.082 1.179-.521 1.179-1.042v-9.129c0-.603-.33-.767-1.179-.85l-.548-.054c-.11 0-.192-.028-.192-.11v-.63l.027-.055s2.166.055 3.016.055h.109c.819-.005 2.742-.055 2.742-.055Zm5.792 6.77c.603 0 1.042.138 1.453.686l3.043 3.783c.384.439.411.74.411 1.097v.329l.028.027s.987-.027 1.672-.027c.767 0 2.22.027 2.22.027l.083-.027v-.576c0-.082-.11-.137-.192-.164l-.137-.028c-.549-.11-1.207-.274-1.536-.658l-4.139-4.989c-.137-.164-.247-.302-.247-.466 0-.22.165-.52.63-1.014l2.358-2.714c.987-1.124 1.727-1.179 2.797-1.261.137 0 .219-.055.219-.137v-.63l-.082-.028s-1.207.055-1.92.055c-.794 0-3.015-.055-3.015-.055l-.027.027v.63c0 .083.055.11.164.138.549.082.795.329.795.548 0 .52-.85 1.535-1.946 2.741-1.206 1.289-1.727 1.755-2.632 1.755v-4.14c0-.548.302-.685 1.152-.85l.301-.054c.11-.028.165-.055.165-.137v-.603l-.028-.055s-1.727.055-2.494.055c-.85 0-3.098-.055-3.098-.055l-.028.055v.63c0 .082.083.11.192.11l.549.055c.877.082 1.178.246 1.178.85v9.128c0 .52-.356.96-1.178 1.042l-.549.055c-.11 0-.192.054-.192.164v.576l.055.055s2.248-.055 3.016-.055c.822 0 2.55.055 2.55.055l.027-.055v-.576c0-.11-.083-.137-.165-.164l-.301-.055c-.795-.137-1.152-.439-1.152-1.042v-4.057m14.35-5.072c0-.548.301-.767 1.15-.85l.576-.054c.11 0 .165-.055.165-.137v-.603l-.027-.055s-2.111.055-2.851.055c-.85 0-3.016-.055-3.016-.055l-.027.055v.63c0 .082.082.11.192.11l.548.055c.85.082 1.179.246 1.179.85v9.128c0 .52-.275.96-1.18 1.042l-.547.055c-.11 0-.192.054-.192.164v.576l.054.055s2.139-.055 2.906-.055c.85 0 2.934.055 2.934.055l.027-.055v-.576c0-.11-.082-.164-.165-.164l-.575-.055c-.877-.082-1.152-.439-1.152-1.042v-9.129m7.602.055c0-.713.329-.96 1.645-.96 1.508 0 2.577.522 2.577 2.88 0 2.11-.795 3.097-2.44 3.097-.548 0-1.234-.028-1.782-.247v-4.77m-2.11 9.211c0 .521-.275.768-1.125.877l-.575.083c-.11.027-.165.054-.165.164v.576l.028.055s2.056-.055 2.823-.055c.85 0 3.043.055 3.043.055l.027-.055v-.576c0-.11-.082-.137-.191-.164l-.549-.083c-.877-.137-1.206-.274-1.206-.877V16.23c.494.219 1.042.274 1.727.274 3.893 0 4.688-2.577 4.688-4.222 0-1.425-.713-3.344-4.606-3.344-1.014 0-2.11.055-2.878.055-.795 0-2.412-.055-2.824-.055l-.054.027v.63c0 .056.027.138.191.138 1.289.082 1.645.11 1.645.96v9.21m17.615 1.7c.822 0 2.44.055 2.44.055l.054-.055.549-3.153-.686-.082c-.329 1.425-1.096 2.303-2.494 2.303h-2.605c-.493 0-.795-.521-.795-1.042v-4.194h2.056c.713 0 .96.301 1.07.85l.136.603c0 .082.055.137.192.137h.466l.055-.055c-.055-.63-.164-1.206-.164-1.892 0-.658.11-1.425.164-2.028 0-.055 0-.082-.055-.082h-.466c-.11 0-.164.054-.164.137l-.165.575c-.11.549-.301.878-1.069.878H62.17v-3.975c0-.466.274-.658.795-.658h2.193c1.755 0 2.276 1.453 2.577 2.467l.686-.11c-.192-1.042-.384-2.11-.412-3.29l-.054-.054s-1.947.055-2.77.055h-4.029c-.822 0-2.96-.055-2.96-.055l-.028.055v.63c0 .028 0 .082.164.11l.63.055c.769.054 1.097.164 1.097.795v9.046c0 .548-.246 1.097-1.096 1.179l-.63.055c-.138 0-.165.082-.165.137v.603l.027.055s1.892-.055 2.714-.055h4.798m4.883-.576v.576l.027.055s2.083-.055 2.906-.055c.85 0 1.81.055 4.002.055 3.043 0 6.442-1.426 6.442-6.223 0-3.646-2.248-6.497-6.826-6.497-.712 0-3.097.055-3.618.055-.494 0-2.906-.055-2.906-.055l-.027.055v.603c0 .082.082.137.192.137l.603.055c.904.082 1.096.082 1.096.795v9.046c0 .85-.274 1.097-1.096 1.179l-.63.055c-.11 0-.165.082-.165.164m4.002-1.398v-9.046c0-.686.685-.85 1.754-.85 4.606 0 5.236 3.317 5.236 6.168 0 3.838-1.7 4.962-4.715 4.962-2.083 0-2.275-.466-2.275-1.234m30.255-10.691.055.055v.603c0 .082-.082.11-.192.137l-.356.055c-.85.137-1.179.274-1.179.822v8.361c0 3.454-.904 5.263-2.385 6.442-1.151.96-2.275.987-2.906.987-.575 0-1.644-.466-1.644-1.37 0-.576.63-.933.986-.933.768 0 1.07.357 1.316.686.192.274.357.466.713.466.85 0 1.81-.768 1.81-5.702v-8.937c0-.603-.33-.768-1.18-.822l-.767-.055c-.082 0-.164-.055-.164-.137v-.603l.027-.055s2.357.055 3.18.055h.117c.829-.006 2.57-.055 2.57-.055Zm-9.104 0 .055.055c.027 1.178.219 2.247.41 3.29l-.685.109c-.301-1.014-.822-2.467-2.576-2.467h-2.194c-.52 0-.795.192-.795.658v3.975h2.056c.768 0 .96-.33 1.07-.878l.164-.575c0-.083.055-.137.165-.137h.466c.054 0 .054.027.054.082-.054.603-.164 1.37-.164 2.028 0 .686.11 1.261.164 1.892l-.054.055h-.466c-.137 0-.192-.055-.192-.137l-.137-.603c-.11-.549-.357-.85-1.07-.85h-2.056v4.194c0 .52.302 1.042.795 1.042h2.605c1.398 0 2.165-.878 2.494-2.303l.686.082-.549 3.153-.054.055s-1.618-.055-2.44-.055h-4.798c-.822 0-2.713.055-2.713.055l-.028-.055v-.603c0-.055.028-.137.165-.137l.63-.055c.85-.082 1.097-.63 1.097-1.179v-9.046c0-.63-.33-.74-1.097-.795l-.63-.055c-.165-.028-.165-.082-.165-.11v-.63l.028-.055s2.138.055 2.96.055h4.149c.876-.005 2.65-.055 2.65-.055Zm-3.619-4.332c.713 0 1.316.576 1.316 1.316 0 .713-.603 1.289-1.316 1.289-.74 0-1.316-.576-1.316-1.289 0-.74.576-1.316 1.316-1.316Zm25.821-.712c0-.055-.027-.083-.11-.083-.466.083-.63.11-1.288.11h-6.908c-.74 0-3.51-.027-3.51-.027l-.054.027v.548c0 .083.027.192.22.192l.822.055c1.041.082 1.398.33 1.398 1.179v13.734c0 .768-.33 1.097-1.398 1.179l-.823.055c-.164 0-.219.11-.219.191v.549l.055.055 3.509-.055h5.839c1.316 0 3.509.055 3.509.055L120 17.079l-.85-.138c-.548 1.974-1.617 3.592-3.7 3.592h-3.729c-.603 0-.987-.165-.987-.905v-6.88h3.482c.932 0 1.316.246 1.37 1.04l.055.714c0 .082.083.192.22.192h.63l.082-.083s-.11-1.562-.11-2.494c0-.905.11-2.358.11-2.358 0-.055-.027-.11-.11-.11h-.602c-.11 0-.192.11-.192.22l-.083.685c-.082.768-.41 1.152-1.37 1.152h-3.482V5.894c0-.658.33-.877.987-.877h2.879c2.056 0 2.549 1.096 3.152 2.988l.795-.137c-.137-1.124-.548-3.756-.603-3.975m-5.84-2.577c0 .713.577 1.288 1.317 1.288.713 0 1.316-.575 1.316-1.288 0-.74-.603-1.316-1.316-1.316-.74 0-1.316.576-1.316 1.316"/></svg>
